X: 160
T: 161. Ihr Gestirn, ihr hohen L\"ufte
N: Derived from chor161.krn
C: Johann Sebastian Bach
%%abc-version 2.0
%%abcx-abcm2ps-target-version 5.9.1 (29 Sep 2008)
%%abc-creator hum2abc beta
%%abcx-conversion-date 2019/03/11 17:28:18
%%abc-edited-by Craig Stuart Sapp
%%humdrum-veritas 627068492
%%humdrum-veritas-data 897763153
%%
%%barnumbers 0
L: 1/4
M: 3/4
%%staves [1 2 3 4]
V: 1 clef=treble
V: 2 clef=treble
V: 3 clef=treble-8
V: 4 clef=bass
K: F
[V:1] D2E | 
[V:2] A,2^C | 
[V:3] F/G/AG | 
[V:4] D,/E,/F,/G,/F,/E,/ | 
[V:1] F2G | 
[V:2] D2E | 
[V:3] A2B | 
[V:4] D,=C,/B,,/A,,/G,,/ | 
[V:1] A2d | 
[V:2] F3/G/A | 
[V:3] cd/e/f | 
[V:4] F,,/G,,/F,,/E,,/D,, | 
[V:1] ^c2!fermata!c | 
[V:2] A2!fermata!A | 
[V:3] e2!fermata!e | 
[V:4] A,,2!fermata!A,, | 
[V:1] d2e | 
[V:2] A2A | 
[V:3] f2e | 
[V:4] D,/E,/F,/E,/D,/^C,/ | 
[V:1] f3 | 
[V:2] A3/G/F/E/ | 
[V:3] d/^c/d/e/d/c/ | 
[V:4] D,3- | 
[V:1] FG3/G/ | 
[V:2] F2E | 
[V:3] B/A/dc3//B// | 
[V:4] D,/C,/B,,C, | 
[V:1] !fermata!F3 :|]  
[V:2] !fermata!C3 :|]  
[V:3] !fermata!A3 :|]  
[V:4] !fermata!F,,3 :|]  
[V:1] G2G | 
[V:2] EFG- | 
[V:3] c2c | 
[V:4] C,D,E, | 
[V:1] A2c | 
[V:2] G/FE/F | 
[V:3] c3/B/A | 
[V:4] F,G,A, | 
[V:1] B2G | 
[V:2] FE/D/E | 
[V:3] d2c | 
[V:4] G,G,,C, | 
[V:1] A2!fermata!A | 
[V:2] F2!fermata!F | 
[V:3] c2!fermata!c | 
[V:4] F,2!fermata!F, | 
[V:1] c2c | 
[V:2] A2A/G/ | 
[V:3] f2f/_e/ | 
[V:4] F,F,,/G,,/A,, | 
[V:1] d2f | 
[V:2] F/E/F/G/A | 
[V:3] d2c | 
[V:4] B,,B,A, | 
[V:1] ed^c | 
[V:2] B/G/ F/E/ E/G/ | 
[V:3] B=BA | 
[V:4] G,^G,A, | 
[V:1] d2!fermata!d |]  
[V:2] ^F2!fermata!F |]  
[V:3] A2!fermata!A |]  
[V:4] D,2!fermata!D, |]  



